icon/icon_clipboard-tick.svg

<svg width="24" height="24" viewBox="0 0 24 24" fill="none" xmlns="http://www.w3.org/2000/svg">
<path d="M9.31006 14.7L10.8101 16.2L14.8101 12.2" stroke="#292D32" stroke-width="1.5" stroke-linecap="round" stroke-linejoin="round"/>
<path d="M10 6H14C16 6 16 5 16 4C16 2 15 2 14 2H10C9 2 8 2 8 4C8 6 9 6 10 6Z" stroke="#292D32" stroke-width="1.5" stroke-miterlimit="10" stroke-linecap="round" stroke-linejoin="round"/>
<path d="M16 4.02C19.33 4.2 21 5.43 21 10V16C21 20 20 22 15 22H9C4 22 3 20 3 16V10C3 5.44 4.67 4.2 8 4.02" stroke="#292D32" stroke-width="1.5" stroke-miterlimit="10" stroke-linecap="round" stroke-linejoin="round"/>
</svg>

<?xml version="1.0" encoding="utf-8"?>
<!-- Generator: Adobe Illustrator 25.2.1, SVG Export Plug-In . SVG Version: 6.00 Build 0)  -->
<svg version="1.1" id="Layer_1" xmlns="http://www.w3.org/2000/svg" xmlns:xlink="http://www.w3.org/1999/xlink" x="0px" y="0px"
	 viewBox="0 0 24 24" style="enable-background:new 0 0 24 24;" xml:space="preserve">
<style type="text/css">
	.st0{fill:none;stroke:#505050;stroke-width:1.5;stroke-linecap:round;stroke-linejoin:round;}
	.st1{fill:none;stroke:#505050;stroke-width:1.5;stroke-linecap:round;stroke-linejoin:round;stroke-miterlimit:10;}
</style>
<path class="st0" d="M9.3,14.7l1.5,1.5l4-4"/>
<path class="st1" d="M10,6h4c2,0,2-1,2-2c0-2-1-2-2-2h-4C9,2,8,2,8,4S9,6,10,6z"/>
<path class="st1" d="M16,4c3.3,0.2,5,1.4,5,6v6c0,4-1,6-6,6H9c-5,0-6-2-6-6v-6c0-4.6,1.7-5.8,5-6"/>
</svg>
